packages/core/src/svgs/tokens/mono/HORD.svg

<svg width="24" height="24" viewBox="0 0 24 24" fill="none" xmlns="http://www.w3.org/2000/svg">
<path d="M4.65398 2C4.82369 3.42438 6.50264 6.83074 11.6849 6.62465C12.188 6.60648 13.2304 7.01257 13.4547 8.33391C13.7276 9.9886 11.8001 10.6796 9.84229 10.6796C10.1479 10.5724 10.4344 10.4168 10.6908 10.219C8.58766 10.1461 4.04182 7.75809 4.65398 2ZM17.0309 7.12167C18.201 6.71703 19.2033 5.93442 19.8796 4.89724C19.8618 5.61892 19.6729 6.32607 19.3282 6.96044C18.9837 7.59481 18.4934 8.13825 17.8975 8.54604C17.699 8.02188 17.4051 7.53896 17.0309 7.12167ZM8.10884 11.7888C9.62407 11.4069 13.5033 10.7281 16.8975 11.1099C16.9217 10.9402 16.9582 10.5704 16.8309 10.5038C15.6911 10.3397 14.5338 10.3397 13.3942 10.5038C14.4774 10.0347 15.651 9.81119 16.8309 9.84918C16.6602 8.67962 16.1356 7.59033 15.3277 6.72769C15.0853 6.73376 14.5215 6.69133 14.2367 6.50343C13.8851 6.26099 13.3881 5.90337 13.6064 5.65487C13.7881 5.4488 14.4549 5.61851 14.7579 5.72761C15.1216 5.87913 15.7761 6.29129 15.5761 6.72769C16.3823 7.21259 17.9764 9.00669 17.9158 11.9948C15.6307 11.3341 10.4243 11.5523 8.10884 11.7949V11.7888ZM13.2609 12.4797C10.9576 11.2857 8.06641 12.7827 6.90267 13.6859C7.67244 13.6859 9.50286 13.5101 10.6303 12.7525C10.0162 13.5114 9.1448 14.0182 8.18157 14.1768C10.6364 14.6981 12.594 13.2677 13.2669 12.4797H13.2609ZM14.7761 12.5161C15.7459 12.3343 17.7158 12.0919 17.7643 12.6434C17.8067 13.2009 15.7883 12.7888 14.77 12.5221L14.7761 12.5161ZM13.8669 16.2316C13.4245 16.0921 12.6305 15.4557 13.0365 14.0131C13.4426 12.5706 15.0004 12.8858 15.7278 13.2253C15.5459 13.3223 15.1579 13.601 15.0548 14.0131C15.9762 13.4313 17.9582 12.8312 18.4976 15.1043C18.5158 15.286 18.5158 15.6618 18.3642 15.777C18.2794 15.8436 18.2249 15.8012 18.134 15.7285C18.0128 15.6437 17.8492 15.5164 17.5097 15.5164C17.3339 15.6012 16.9521 15.777 16.7944 15.777C16.6005 15.777 16.4369 15.2133 16.9097 15.0436C16.7641 14.9829 16.4125 15.0253 16.158 15.68C16.0974 15.7407 15.9399 15.8739 15.8126 15.8739C15.661 15.8739 14.9034 15.383 16.158 14.3041C15.7459 14.3101 14.8973 14.6315 14.7943 15.88C14.5659 15.7255 14.3855 15.5103 14.273 15.2585C14.1605 15.0069 14.1206 14.7288 14.1579 14.4557C13.9397 14.5527 13.576 15.0497 13.8669 16.2316ZM6.22382 15.5649C6.53364 15.1587 6.95478 14.8512 7.43606 14.68C6.50264 15.8012 6.75114 17.4195 6.99359 18.0862C7.01641 17.4768 7.17261 16.8799 7.45117 16.3375C7.72974 15.795 8.1239 15.3202 8.60585 14.9466C8.224 17.559 8.44826 18.9955 8.60585 19.3895C6.08441 19.5712 4.56307 18.6014 4.12061 18.0862C4.34487 17.9408 5.8056 16.1831 6.22382 15.5649ZM9.24222 15.3223C10.0424 16.0497 12.0425 17.5953 13.6366 17.9772L14.0609 19.5409L14.7276 18.9167C15.1579 18.9772 16.1399 19.0621 16.5642 18.9167L17.243 19.8258L17.4308 18.7955C17.6188 18.7772 18.0067 18.8075 18.0431 19.0803C18.1462 19.7713 18.6188 21.3229 19.6977 21.9896C18.8492 22.0564 17.043 21.8321 16.5642 20.4137C16.4369 20.5107 16.1216 20.8259 15.8975 21.3047C14.97 21.5957 12.8305 21.4017 11.7395 18.2742C11.6547 18.7712 11.5516 19.9713 11.8607 20.735C10.8666 20.5471 8.95134 19.1954 9.24222 15.3223ZM16.6368 16.1043C15.8368 15.9406 14.4549 16.965 13.8548 17.4983C14.2367 17.4983 15.0065 17.2862 15.3398 17.1832L15.1882 17.5529C16.5581 16.5044 16.7156 17.0559 16.6429 16.9892C16.5823 16.9287 16.2974 17.0923 16.1641 17.1832C16.443 17.2257 17.0733 17.3044 17.34 17.2681C17.6066 17.2316 17.7946 16.9892 17.8551 16.8741V17.1771C17.8855 17.165 17.9521 17.0377 17.9704 16.6317C17.9824 16.2316 16.8793 16.2316 16.3157 16.2801L16.6429 16.0982L16.6368 16.1043ZM15.5822 17.571C15.8914 17.5529 16.4915 17.5529 16.4308 17.6802C16.3581 17.8075 15.7278 18.056 15.4186 18.165C15.6974 18.0196 16.1216 17.6983 15.5822 17.571ZM15.6732 18.559C16.1096 18.1833 17.1945 17.4681 18.0552 17.6134C18.9158 17.759 18.5764 18.1833 18.2976 18.3771H17.7158C17.5946 18.3045 17.0065 18.2318 15.6732 18.559ZM12.2122 13.8132C11.7274 14.6435 10.6182 15.0921 10.1212 15.2133C10.3697 15.5466 11.0122 16.1831 11.5758 16.0316C12.1273 15.8861 12.2304 14.492 12.2122 13.8132Z" fill="white"/>
</svg>

<svg xmlns="http://www.w3.org/2000/svg" width="24" height="24" fill="none" viewBox="0 0 24 24">
    <path fill="#fff" d="M4.654 2c.17 1.424 1.849 4.83 7.03 4.625.504-.019 1.546.388 1.77 1.709.274 1.655-1.654 2.346-3.612 2.346.306-.108.592-.263.849-.461C8.588 10.146 4.04 7.759 4.654 2m12.377 5.122a5.58 5.58 0 0 0 2.849-2.225 4.56 4.56 0 0 1-1.982 3.649 4.5 4.5 0 0 0-.867-1.424m-8.922 4.667c1.515-.382 5.394-1.06 8.789-.68.024-.169.06-.539-.067-.605a12 12 0 0 0-3.437 0 8 8 0 0 1 3.437-.655 5.8 5.8 0 0 0-1.503-3.121c-.243.006-.806-.037-1.091-.225-.352-.242-.849-.6-.63-.848.181-.206.848-.036 1.15.073.365.151 1.02.563.82 1 .805.485 2.4 2.279 2.339 5.267-2.285-.66-7.492-.443-9.807-.2zm5.152.69c-2.303-1.193-5.195.304-6.358 1.207.77 0 2.6-.176 3.727-.934a3.98 3.98 0 0 1-2.448 1.425c2.454.521 4.412-.91 5.085-1.697zm1.515.037c.97-.182 2.94-.424 2.988.127.043.558-1.976.146-2.994-.12zm-.91 3.716c-.441-.14-1.235-.776-.83-2.219.407-1.442 1.964-1.127 2.692-.788-.182.097-.57.376-.673.788.921-.582 2.903-1.182 3.443 1.091.018.182.018.558-.134.673-.085.067-.14.024-.23-.048-.121-.085-.285-.213-.624-.213-.176.085-.558.261-.716.261-.194 0-.357-.564.116-.733-.146-.061-.497-.019-.752.636-.06.06-.218.194-.345.194-.152 0-.91-.491.345-1.57-.412.006-1.26.328-1.364 1.576a1.48 1.48 0 0 1-.636-1.424c-.218.097-.582.594-.291 1.776m-7.642-.667c.31-.406.73-.714 1.212-.885-.933 1.121-.685 2.74-.442 3.406a4.17 4.17 0 0 1 1.612-3.14c-.382 2.613-.158 4.05 0 4.444-2.522.181-4.043-.789-4.485-1.304.224-.145 1.685-1.903 2.103-2.521m3.018-.243c.8.728 2.8 2.273 4.395 2.655l.424 1.564.667-.624c.43.06 1.412.145 1.836 0l.679.909.188-1.03c.188-.019.576.012.612.284.103.691.576 2.243 1.655 2.91-.849.066-2.655-.158-3.134-1.576-.127.097-.442.412-.666.89-.928.292-3.067.098-4.158-3.03-.085.497-.188 1.697.12 2.461-.993-.188-2.909-1.54-2.618-5.413m7.395.782c-.8-.163-2.182.861-2.782 1.394.382 0 1.152-.212 1.485-.315l-.152.37c1.37-1.049 1.528-.497 1.455-.564-.06-.06-.346.103-.479.194.279.043.91.121 1.176.085.267-.036.455-.279.515-.394v.303c.03-.012.097-.14.115-.545.012-.4-1.09-.4-1.654-.352l.327-.182zm-1.055 1.467c.31-.018.91-.018.849.11-.073.127-.703.375-1.012.484.278-.145.703-.467.163-.594m.091.988c.437-.376 1.522-1.09 2.382-.946.86.146.521.57.243.764h-.582c-.121-.072-.71-.145-2.043.182m-3.46-4.746c-.486.83-1.595 1.28-2.092 1.4.249.334.891.97 1.455.819.551-.146.654-1.54.636-2.219"/>
</svg>
